svgs/sharp-regular/keyboard.svg

<svg xmlns="http://www.w3.org/2000/svg" viewBox="0 0 576 512"><!--! Font Awesome Pro 6.6.0 by @fontawesome - https://fontawesome.com License - https://fontawesome.com/license (Commercial License) Copyright 2024 Fonticons, Inc. --><path d="M48 112l0 288 480 0 0-288L48 112zM0 64l48 0 480 0 48 0 0 48 0 288 0 48-48 0L48 448 0 448l0-48L0 112 0 64zM416 320l0 48-256 0 0-48 256 0zM104 232l48 0 0 48-48 0 0-48zm48-80l0 48-48 0 0-48 48 0zm32 80l48 0 0 48-48 0 0-48zm48-80l0 48-48 0 0-48 48 0zm32 80l48 0 0 48-48 0 0-48zm48-80l0 48-48 0 0-48 48 0zm32 80l48 0 0 48-48 0 0-48zm48-80l0 48-48 0 0-48 48 0zm32 80l48 0 0 48-48 0 0-48zm48-80l0 48-48 0 0-48 48 0z"/></svg>

<svg xmlns="http://www.w3.org/2000/svg" viewBox="0 0 576 512"><!--! Font Awesome Pro 6.4.0 by @fontawesome - https://fontawesome.com License - https://fontawesome.com/license (Commercial License) Copyright 2023 Fonticons, Inc. --><path d="M48 112V400H528V112H48zM0 64H48 528h48v48V400v48H528 48 0V400 112 64zM416 320v48H160V320H416zM104 232h48v48H104V232zm48-80v48H104V152h48zm32 80h48v48H184V232zm48-80v48H184V152h48zm32 80h48v48H264V232zm48-80v48H264V152h48zm32 80h48v48H344V232zm48-80v48H344V152h48zm32 80h48v48H424V232zm48-80v48H424V152h48z"/></svg>
